korla-pgrey/places/scalable/user-trash-full.svg

<svg style="clip-rule:evenodd;fill-rule:evenodd;stroke-linejoin:round;stroke-miterlimit:1.41421" version="1.1" viewBox="0 0 48 48" xmlns="http://www.w3.org/2000/svg">
 <g id="path2-3" transform="matrix(-.0747664 0 0 .0747664 47.7408 0)">
  <path d="m294.788 606.666c-62.737-4.301-113.814-21.434-135.883-45.581-7.858-8.598-9.984-13.202-12.313-26.658-6.427-37.136-69.572-389.781-71.223-396.106-0.769-50.996 127.922-82.407 239.988-81.587 141.72 0 247.593 33.554 247.81 76.741-8.537 45.645-52.662 268.819-72.054 405.927 0 1.692-1.725 6.527-3.833 10.746-10.697 21.405-46.563 40.375-95.001 50.246-26.96 5.495-69.197 8.212-97.491 6.272z" style="fill:none;stroke-width:3.83px;stroke:url(#_Linear1)"/>
  <path d="m294.788 606.666c-62.737-4.301-113.814-21.434-135.883-45.581-7.858-8.598-9.984-13.202-12.313-26.658-6.427-37.136-69.572-389.781-71.223-396.106-0.769-50.996 127.922-82.407 239.988-81.587 141.72 0 247.593 33.554 247.81 76.741-8.537 45.645-52.662 268.819-72.054 405.927 0 1.692-1.725 6.527-3.833 10.746-10.697 21.405-46.563 40.375-95.001 50.246-26.96 5.495-69.197 8.212-97.491 6.272z" style="fill-rule:nonzero;fill:url(#_Linear2)"/>
 </g>
 <g id="path4-6" transform="matrix(-.0747664 0 0 .0747664 47.7408 0)">
  <path d="m291.267 185.086c-81.064-3.12-155.973-20.451-188.321-43.571-8.21-5.867-14.754-14.236-14.731-18.838 0.039-7.788 12.445-19.427 29.85-28.002 74.486-36.699 228.626-46.472 341.619-21.659 39.03 8.57 68.521 20.248 84.812 33.584 11.015 9.017 13.092 14.738 8.305 22.877-11.247 19.124-61.329 38.595-124.344 48.343-25.365 3.923-49.512 6.151-79.43 7.327-26.187 1.03-29.505 1.026-57.76-0.061z" style="fill-rule:nonzero;fill:url(#_Linear3)"/>
 </g>
 <g id="path6" transform="scale(.0747664)">
  <path d="m171.88 170.372c-25.209-7.263-29.309-6.144-29.665-19.154-0.159-5.788 0.814-23.038 0.708-24.22-0.246-2.748 31.872-33.98 36.185-34.117 1.781-0.056 16.841 2.939 19.672 4.016l7.549 16.607 0.283 8.13c1.129 32.479-22.573 11.237-22.573 14.73 0 2.254 3.038 10.763 6.75 18.909 3.713 8.147 7.857 12.359 6.552 20.457-13.945-3.075-16.253-3.167-25.461-5.358z" style="fill-rule:nonzero;fill:rgb(235,69,69)"/>
 </g>
 <g id="path8" transform="scale(.0747664)">
  <path d="m445.339 168.035c0-3.842 13.135-19.402 2.833-31.222-15.979-18.33-11.897-13.687 5.868-24.725 11.059-12.305 7.911-16.558 17.097-6.2 10.386 9.862 16.257 56.817 13.776 58.279-2.247 1.803-40.845 10.424-43.535 10.424-1.089 0 3.961-3.64 3.961-6.556z" style="fill-rule:nonzero;fill:rgb(89,164,218)"/>
 </g>
 <g id="path10" transform="scale(.0747664)">
  <path d="m262.481 183.184c-26.633-1.988-59.928-6.318-65.565-7.563-5.234-1.156-6.323-10.296-11.507-23.174-3.439-8.54-6.252-16.33-6.252-17.313 0-1.758 25.92-35.044 46.981-60.33 5.921-7.11 21.286-24.954 22.99-24.977 4.405-0.058 72.981 21.344 78.453 22.598 3.042 0.696 5.843 3.917 8.463 9.729 2.154 4.779 5.146 9.152 6.651 9.719 1.504 0.566 13.642-1.214 26.974-3.957 13.331-2.743 25.999-4.987 28.151-4.987 4.875 0 67.134 64.105 67.134 69.125 0 4.079 4.075 15.955-1.193 17.698-4.993 1.652-12.261 3.903-23.897 5.643-40.744 6.091-56.635 8.763-119.766 10.223-27.448 0.635-53.834-2.152-57.617-2.434z" style="fill-rule:nonzero;fill:rgb(244,244,244)"/>
 </g>
 <g transform="scale(.0747664)">
  <path d="m205.964 150.677 5.409-45.17 35.256 7.266 26.868 26.293 47.128-21.296 27.467 43.588 53.945 4.143 20.57 12.195s-47.662 8.044-99.932 8.016c-53.501-0.029-95.16-5.988-111.302-7.893-2.045-10.216-5.409-27.142-5.409-27.142z" style="fill:rgb(221,221,221)"/>
 </g>
 <defs>
  <linearGradient id="_Linear1" x2="1" gradientTransform="matrix(17.766,550.572,-550.572,17.766,296.519,56.7186)" gradientUnits="userSpaceOnUse">
   <stop style="stop-color:white;stop-opacity:0" offset="0"/>
   <stop style="stop-color:rgb(189,189,189);stop-opacity:.76" offset=".48"/>
   <stop style="stop-color:rgb(169,169,169)" offset="1"/>
  </linearGradient>
  <linearGradient id="_Linear2" x2="1" gradientTransform="matrix(110.113,400.781,-400.781,110.113,325.348,222.435)" gradientUnits="userSpaceOnUse">
   <stop style="stop-color:rgb(153,153,153)" offset="0"/>
   <stop style="stop-color:rgb(200,200,200);stop-opacity:.72" offset="1"/>
  </linearGradient>
  <linearGradient id="_Linear3" x2="1" gradientTransform="matrix(467.008,0,0,467.008,88.2152,122.6)" gradientUnits="userSpaceOnUse">
   <stop style="stop-color:rgb(50,50,50)" offset="0"/>
   <stop style="stop-color:rgb(195,195,195)" offset="1"/>
  </linearGradient>
 </defs>
</svg>

<?xml version="1.0" encoding="UTF-8" standalone="no"?>

<svg width="100%" height="100%" viewBox="0 0 642 642" version="1.1" xmlns="http://www.w3.org/2000/svg" xmlns:xlink="http://www.w3.org/1999/xlink" xml:space="preserve" xmlns:serif="http://www.serif.com/" style="fill-rule:evenodd;clip-rule:evenodd;stroke-linejoin:round;stroke-miterlimit:1.41421;">
    <g id="path2-3" transform="matrix(-1,0,0,1,638.533,0)">
        <path d="M294.788,606.666C232.051,602.365 180.974,585.232 158.905,561.085C151.047,552.487 148.921,547.883 146.592,534.427C140.165,497.291 77.02,144.646 75.369,138.321C74.6,87.325 203.291,55.914 315.357,56.734C457.077,56.734 562.95,90.288 563.167,133.475C554.63,179.12 510.505,402.294 491.113,539.402C491.113,541.094 489.388,545.929 487.28,550.148C476.583,571.553 440.717,590.523 392.279,600.394C365.319,605.889 323.082,608.606 294.788,606.666Z" style="fill:none;stroke:url(#_Linear1);stroke-width:3.83px;"/>
        <path d="M294.788,606.666C232.051,602.365 180.974,585.232 158.905,561.085C151.047,552.487 148.921,547.883 146.592,534.427C140.165,497.291 77.02,144.646 75.369,138.321C74.6,87.325 203.291,55.914 315.357,56.734C457.077,56.734 562.95,90.288 563.167,133.475C554.63,179.12 510.505,402.294 491.113,539.402C491.113,541.094 489.388,545.929 487.28,550.148C476.583,571.553 440.717,590.523 392.279,600.394C365.319,605.889 323.082,608.606 294.788,606.666Z" style="fill:url(#_Linear2);fill-rule:nonzero;"/>
    </g>
    <g id="path4-6" transform="matrix(-1,0,0,1,638.533,0)">
        <path d="M291.267,185.086C210.203,181.966 135.294,164.635 102.946,141.515C94.736,135.648 88.192,127.279 88.215,122.677C88.254,114.889 100.66,103.25 118.065,94.675C192.551,57.976 346.691,48.203 459.684,73.016C498.714,81.586 528.205,93.264 544.496,106.6C555.511,115.617 557.588,121.338 552.801,129.477C541.554,148.601 491.472,168.072 428.457,177.82C403.092,181.743 378.945,183.971 349.027,185.147C322.84,186.177 319.522,186.173 291.267,185.086Z" style="fill:url(#_Linear3);fill-rule:nonzero;"/>
    </g>
    <path id="path6" d="M171.88,170.372C146.671,163.109 142.571,164.228 142.215,151.218C142.056,145.43 143.029,128.18 142.923,126.998C142.677,124.25 174.795,93.018 179.108,92.881C180.889,92.825 195.949,95.82 198.78,96.897L206.329,113.504L206.612,121.634C207.741,154.113 184.039,132.871 184.039,136.364C184.039,138.618 187.077,147.127 190.789,155.273C194.502,163.42 198.646,167.632 197.341,175.73C183.396,172.655 181.088,172.563 171.88,170.372Z" style="fill:rgb(235,69,69);fill-rule:nonzero;"/>
    <path id="path8" d="M445.339,168.035C445.339,164.193 458.474,148.633 448.172,136.813C432.193,118.483 436.275,123.126 454.04,112.088C465.099,99.783 461.951,95.53 471.137,105.888C481.523,115.75 487.394,162.705 484.913,164.167C482.666,165.97 444.068,174.591 441.378,174.591C440.289,174.591 445.339,170.951 445.339,168.035Z" style="fill:rgb(89,164,218);fill-rule:nonzero;"/>
    <path id="path10" d="M262.481,183.184C235.848,181.196 202.553,176.866 196.916,175.621C191.682,174.465 190.593,165.325 185.409,152.447C181.97,143.907 179.157,136.117 179.157,135.134C179.157,133.376 205.077,100.09 226.138,74.804C232.059,67.694 247.424,49.85 249.128,49.827C253.533,49.769 322.109,71.171 327.581,72.425C330.623,73.121 333.424,76.342 336.044,82.154C338.198,86.933 341.19,91.306 342.695,91.873C344.199,92.439 356.337,90.659 369.669,87.916C383,85.173 395.668,82.929 397.82,82.929C402.695,82.929 464.954,147.034 464.954,152.054C464.954,156.133 469.029,168.009 463.761,169.752C458.768,171.404 451.5,173.655 439.864,175.395C399.12,181.486 383.229,184.158 320.098,185.618C292.65,186.253 266.264,183.466 262.481,183.184Z" style="fill:rgb(244,244,244);fill-rule:nonzero;"/>
    <path d="M205.964,150.677L211.373,105.507L246.629,112.773L273.497,139.066L320.625,117.77L348.092,161.358L402.037,165.501L422.607,177.696C422.607,177.696 374.945,185.74 322.675,185.712C269.174,185.683 227.515,179.724 211.373,177.819C209.328,167.603 205.964,150.677 205.964,150.677Z" style="fill:rgb(221,221,221);"/>
    <defs>
        <linearGradient id="_Linear1" x1="0" y1="0" x2="1" y2="0" gradientUnits="userSpaceOnUse" gradientTransform="matrix(17.766,550.572,-550.572,17.766,296.519,56.7186)"><stop offset="0" style="stop-color:white;stop-opacity:0"/><stop offset="0.48" style="stop-color:rgb(189,189,189);stop-opacity:0.764706"/><stop offset="1" style="stop-color:rgb(169,169,169);stop-opacity:1"/></linearGradient>
        <linearGradient id="_Linear2" x1="0" y1="0" x2="1" y2="0" gradientUnits="userSpaceOnUse" gradientTransform="matrix(110.113,400.781,-400.781,110.113,325.348,222.435)"><stop offset="0" style="stop-color:rgb(153,153,153);stop-opacity:1"/><stop offset="1" style="stop-color:rgb(200,200,200);stop-opacity:0.721569"/></linearGradient>
        <linearGradient id="_Linear3" x1="0" y1="0" x2="1" y2="0" gradientUnits="userSpaceOnUse" gradientTransform="matrix(467.008,0,0,467.008,88.2152,122.6)"><stop offset="0" style="stop-color:rgb(50,50,50);stop-opacity:1"/><stop offset="1" style="stop-color:rgb(195,195,195);stop-opacity:1"/></linearGradient>
    </defs>
</svg>
